images/cc-by-nd.svg

<?xml version="1.0" encoding="UTF-8" standalone="no"?>
<!-- Created with Inkscape (http://www.inkscape.org/) -->
<svg
   xmlns:dc="http://purl.org/dc/elements/1.1/"
   xmlns:cc="http://web.resource.org/cc/"
   xmlns:rdf="http://www.w3.org/1999/02/22-rdf-syntax-ns#"
   xmlns:svg="http://www.w3.org/2000/svg"
   xmlns="http://www.w3.org/2000/svg"
   xmlns:sodipodi="http://sodipodi.sourceforge.net/DTD/sodipodi-0.dtd"
   xmlns:inkscape="http://www.inkscape.org/namespaces/inkscape"
   width="80"
   height="15"
   id="svg2279"
   sodipodi:version="0.32"
   inkscape:version="0.45+devel"
   version="1.0"
   sodipodi:docname="by-nd.svg"
   inkscape:output_extension="org.inkscape.output.svg.inkscape">
  <defs
     id="defs2281">
    <clipPath
       clipPathUnits="userSpaceOnUse"
       id="clipPath3442">
      <rect
         style="fill:#000000;fill-opacity:1;stroke:none;stroke-width:0.92243534;stroke-miterlimit:4;stroke-dasharray:none;stroke-opacity:1"
         id="rect3444"
         width="20.614058"
         height="12.483703"
         x="171.99832"
         y="239.1203" />
    </clipPath>
  </defs>
  <sodipodi:namedview
     id="base"
     pagecolor="#ffffff"
     bordercolor="#999999"
     borderopacity="1"
     gridtolerance="10000"
     guidetolerance="10"
     objecttolerance="10"
     inkscape:pageopacity="0.0"
     inkscape:pageshadow="2"
     inkscape:zoom="10.5125"
     inkscape:cx="40"
     inkscape:cy="7.5"
     inkscape:document-units="px"
     inkscape:current-layer="layer1"
     width="80px"
     height="15px"
     showborder="true"
     inkscape:showpageshadow="false"
     inkscape:window-width="935"
     inkscape:window-height="624"
     inkscape:window-x="50"
     inkscape:window-y="160" />
  <metadata
     id="metadata2284">
    <rdf:RDF>
      <cc:Work
         rdf:about="">
        <dc:format>image/svg+xml</dc:format>
        <dc:type
           rdf:resource="http://purl.org/dc/dcmitype/StillImage" />
      </cc:Work>
    </rdf:RDF>
  </metadata>
  <g
     inkscape:label="Layer 1"
     inkscape:groupmode="layer"
     id="layer1">
    <g
       id="BY-ND"
       transform="matrix(0.9875019,0,0,0.9333518,-323.90064,-384.81244)">
      <rect
         style="fill:#ffffff;fill-opacity:1;stroke:#000000;stroke-width:1.04161763;stroke-miterlimit:4;stroke-dasharray:none;stroke-opacity:1"
         id="rect3767"
         width="80"
         height="15"
         x="328.5"
         y="412.86218" />
      <rect
         y="414.36218"
         x="330"
         height="12"
         width="77"
         id="rect3769"
         style="fill:#000000;fill-opacity:1;stroke:none;stroke-width:0.92243534;stroke-miterlimit:4;stroke-dasharray:none;stroke-opacity:1" />
      <path
         style="fill:#abb1aa;fill-opacity:1;stroke:none;stroke-width:1;stroke-miterlimit:4;stroke-dasharray:none;stroke-opacity:0.46913578"
         d="M 329.99996,414.36218 L 329.99996,426.36218 L 350.33474,426.36218 C 351.64339,424.61187 352.52652,422.5777 352.52652,420.36218 C 352.52652,418.16144 351.65859,416.10503 350.36599,414.36218 L 329.99996,414.36218 z"
         id="path3771"
         sodipodi:nodetypes="cccscc" />
      <g
         id="g3773"
         transform="matrix(0.9612533,0,0,0.9612533,164.83416,184.507)"
         clip-path="url(#clipPath3442)">
        <path
           id="path3775"
           cx="296.35416"
           ry="22.939548"
           cy="264.3577"
           type="arc"
           rx="22.939548"
           d="M 190.06417,245.36206 C 190.06667,249.25405 186.91326,252.41072 183.02153,252.41323 C 179.12979,252.41572 175.97262,249.26256 175.97036,245.3706 C 175.97036,245.36783 175.97036,245.36507 175.97036,245.36206 C 175.9681,241.47007 179.12126,238.3134 183.013,238.31113 C 186.90524,238.30864 190.06191,241.46181 190.06417,245.3538 C 190.06417,245.35628 190.06417,245.35929 190.06417,245.36206 z"
           style="opacity:1;fill:#ffffff" />
        <path
           d="M 188.74576,239.62226 C 190.30843,241.18492 191.08988,243.09869 191.08988,245.36206 C 191.08988,247.62592 190.32197,249.51913 188.78615,251.04165 C 187.15627,252.64521 185.22995,253.44672 183.00722,253.44672 C 180.81132,253.44672 178.91837,252.65172 177.32887,251.06174 C 175.73912,249.47198 174.94436,247.57226 174.94436,245.36206 C 174.94436,243.15235 175.73912,241.23908 177.32887,239.62226 C 178.87799,238.0591 180.77094,237.27764 183.00722,237.27764 C 185.2706,237.27764 187.18312,238.05909 188.74576,239.62226 z M 178.38093,240.67355 C 177.05978,242.008 176.39945,243.57116 176.39945,245.36429 C 176.39945,247.15694 177.05326,248.70682 178.36062,250.01393 C 179.66822,251.32153 181.22487,251.97509 183.03105,251.97509 C 184.83724,251.97509 186.40716,251.31502 187.74161,249.99412 C 189.0086,248.76725 189.64234,247.22467 189.64234,245.36429 C 189.64234,243.51799 188.99831,241.95084 187.71101,240.66354 C 186.42396,239.37649 184.86406,238.7327 183.03105,238.7327 C 181.19804,238.73271 179.64767,239.37975 178.38093,240.67355 z M 181.85761,244.57559 C 181.65573,244.13545 181.35354,243.91525 180.95051,243.91525 C 180.23802,243.91525 179.8819,244.39501 179.8819,245.35404 C 179.8819,246.31328 180.23802,246.79255 180.95051,246.79255 C 181.421,246.79255 181.75705,246.55908 181.95869,246.09111 L 182.94629,246.61701 C 182.47555,247.45339 181.76934,247.87168 180.82763,247.87168 C 180.10136,247.87168 179.51953,247.64899 179.08265,247.20409 C 178.64502,246.7587 178.42684,246.14477 178.42684,245.36206 C 178.42684,244.59313 178.65204,243.98271 179.10271,243.53056 C 179.55338,243.07838 180.11463,242.8524 180.7875,242.8524 C 181.78288,242.8524 182.49561,243.24465 182.92647,244.02835 L 181.85761,244.57559 z M 186.50398,244.57559 C 186.30184,244.13545 186.00567,243.91525 185.61517,243.91525 C 184.88839,243.91525 184.52474,244.39501 184.52474,245.35404 C 184.52474,246.31328 184.88839,246.79255 185.61517,246.79255 C 186.08642,246.79255 186.41644,246.55908 186.6048,246.09111 L 187.61447,246.61701 C 187.14448,247.45339 186.43926,247.87168 185.49931,247.87168 C 184.77403,247.87168 184.19346,247.64899 183.75683,247.20409 C 183.32096,246.7587 183.10254,246.14477 183.10254,245.36206 C 183.10254,244.59313 183.32422,243.98271 183.76737,243.53056 C 184.21026,243.07838 184.77404,242.8524 185.4592,242.8524 C 186.45282,242.8524 187.16455,243.24465 187.5939,244.02835 L 186.50398,244.57559 z"
           id="path3777"
           style="opacity:1" />
      </g>
      <path
         id="text3779"
         d="M 357.4197,419.68502 C 357.66518,419.68502 357.85131,419.63145 357.9781,419.52427 C 358.10488,419.41711 358.16827,419.25904 358.16828,419.05006 C 358.16827,418.84377 358.10488,418.68704 357.9781,418.57987 C 357.85131,418.47002 357.66518,418.4151 357.4197,418.4151 L 356.55784,418.4151 L 356.55784,419.68502 L 357.4197,419.68502 M 357.4723,422.30927 C 357.78522,422.30927 358.0199,422.24363 358.17637,422.11235 C 358.33552,421.98107 358.4151,421.78281 358.4151,421.51758 C 358.4151,421.2577 358.33686,421.06346 358.18041,420.93485 C 358.02396,420.80358 357.78792,420.73794 357.4723,420.73794 L 356.55784,420.73794 L 356.55784,422.30927 L 357.4723,422.30927 M 358.92089,420.1512 C 359.25538,420.24766 359.51434,420.42582 359.69779,420.6857 C 359.88121,420.94558 359.97293,421.2644 359.97294,421.64215 C 359.97293,422.22086 359.776,422.65221 359.38217,422.93619 C 358.98833,423.22019 358.38947,423.36218 357.5856,423.36218 L 355.00001,423.36218 L 355.00001,417.36219 L 357.33878,417.36219 C 358.17771,417.36219 358.78466,417.48812 359.15962,417.73994 C 359.53727,417.99179 359.7261,418.39501 359.7261,418.94959 C 359.7261,419.24162 359.65732,419.49079 359.51975,419.69708 C 359.38217,419.90071 359.18255,420.05208 358.92089,420.1512 M 359.83746,417.36219 L 361.54096,417.36219 L 362.91671,419.50016 L 364.29245,417.36219 L 366,417.36219 L 363.69764,420.83439 L 363.69764,423.36218 L 362.13982,423.36218 L 362.13982,420.83439 L 359.83746,417.36219 M 365.15837,420.4084 L 367.69946,420.4084 L 367.69946,421.57785 L 365.15837,421.57785 L 365.15837,420.4084 M 368.9174,417.36219 L 370.65732,417.36219 L 372.85447,421.47739 L 372.85447,417.36219 L 374.33138,417.36219 L 374.33138,423.36218 L 372.59146,423.36218 L 370.3943,419.24698 L 370.3943,423.36218 L 368.9174,423.36218 L 368.9174,417.36219 M 377.41872,418.53164 L 377.41872,422.19273 L 377.97711,422.19273 C 378.61373,422.19273 379.09929,422.03599 379.43379,421.72253 C 379.77098,421.40907 379.93957,420.95361 379.93957,420.35616 C 379.93957,419.76138 379.77232,419.3086 379.43783,418.99782 C 379.10333,418.68704 378.61643,418.53164 377.97711,418.53164 L 377.41872,418.53164 M 375.86089,417.36219 L 377.50369,417.36219 C 378.42085,417.36219 379.10333,417.42783 379.55113,417.5591 C 380.00162,417.68771 380.38736,417.9074 380.70838,418.21818 C 380.99161,418.48878 381.20202,418.8009 381.3396,419.15455 C 381.47717,419.5082 381.54596,419.90874 381.54597,420.35616 C 381.54596,420.80894 381.47717,421.21349 381.3396,421.56982 C 381.20202,421.92347 380.99161,422.23559 380.70838,422.5062 C 380.38466,422.81697 379.99622,423.038 379.54304,423.16928 C 379.08984,423.29788 378.41007,423.36218 377.50369,423.36218 L 375.86089,423.36218 L 375.86089,417.36219"
         style="font-size:8.25858784px;font-style:normal;font-weight:bold;fill:#ffffff;fill-opacity:1;stroke:none;stroke-width:1px;stroke-linecap:butt;stroke-linejoin:miter;stroke-opacity:1;font-family:'Bitstream Vera Sans'" />
    </g>
  </g>
</svg>

<svg xmlns="http://www.w3.org/2000/svg" width="80" height="15" version="1.0"><defs><clipPath clipPathUnits="userSpaceOnUse" id="a"><path style="fill:#000;fill-opacity:1;stroke:none;stroke-width:.92243534;stroke-miterlimit:4;stroke-dasharray:none;stroke-opacity:1" d="M171.998 239.12h20.614v12.484h-20.614z"/></clipPath></defs><path style="fill:#fff;fill-opacity:1;stroke:#000;stroke-width:1.04161763;stroke-miterlimit:4;stroke-dasharray:none;stroke-opacity:1" d="M328.5 412.862h80v15h-80z" transform="matrix(.9875 0 0 .93335 -323.9 -384.812)"/><path style="fill:#000;fill-opacity:1;stroke:none;stroke-width:.92243534;stroke-miterlimit:4;stroke-dasharray:none;stroke-opacity:1" d="M330 414.362h77v12h-77z" transform="matrix(.9875 0 0 .93335 -323.9 -384.812)"/><path style="fill:#abb1aa;fill-opacity:1;stroke:none;stroke-width:1;stroke-miterlimit:4;stroke-dasharray:none;stroke-opacity:.46913578" d="M330 414.362v12h20.335c1.308-1.75 2.192-3.784 2.192-6 0-2.2-.868-4.257-2.161-6H330z" transform="matrix(.9875 0 0 .93335 -323.9 -384.812)"/><g transform="matrix(.94924 0 0 .89719 -161.127 -212.602)" clip-path="url(#a)"><path d="M190.064 245.362a7.047 7.047 0 0 1-14.094.009v-.009a7.047 7.047 0 1 1 14.094-.008v.008z" style="opacity:1;fill:#fff"/><path d="M188.746 239.622c1.562 1.563 2.344 3.477 2.344 5.74 0 2.264-.768 4.157-2.304 5.68-1.63 1.603-3.556 2.405-5.779 2.405-2.196 0-4.089-.795-5.678-2.385-1.59-1.59-2.385-3.49-2.385-5.7s.795-4.123 2.385-5.74c1.549-1.563 3.442-2.344 5.678-2.344 2.264 0 4.176.781 5.739 2.344zm-10.365 1.052c-1.321 1.334-1.982 2.897-1.982 4.69 0 1.793.654 3.343 1.962 4.65 1.307 1.308 2.864 1.961 4.67 1.961s3.376-.66 4.71-1.98c1.268-1.228 1.901-2.77 1.901-4.63 0-1.847-.644-3.414-1.931-4.701-1.287-1.288-2.847-1.931-4.68-1.931-1.833 0-3.383.647-4.65 1.94zm3.477 3.902c-.202-.44-.504-.66-.907-.66-.713 0-1.07.479-1.07 1.438 0 .96.357 1.439 1.07 1.439.47 0 .806-.234 1.008-.702l.987.526c-.47.836-1.177 1.255-2.118 1.255-.727 0-1.308-.223-1.745-.668-.438-.445-.656-1.06-.656-1.842 0-.769.225-1.38.676-1.831.45-.453 1.012-.679 1.684-.679.996 0 1.709.393 2.14 1.176l-1.07.548zm4.646 0c-.202-.44-.498-.66-.889-.66-.727 0-1.09.479-1.09 1.438 0 .96.363 1.439 1.09 1.439.471 0 .801-.234.99-.702l1.01.526c-.47.836-1.176 1.255-2.116 1.255-.725 0-1.306-.223-1.742-.668-.436-.445-.654-1.06-.654-1.842 0-.769.221-1.38.664-1.831.443-.453 1.007-.679 1.692-.679.994 0 1.706.393 2.135 1.176l-1.09.548z" style="opacity:1"/></g><path d="M357.42 419.685c.245 0 .431-.054.558-.16.127-.108.19-.266.19-.475 0-.206-.063-.363-.19-.47-.127-.11-.313-.165-.558-.165h-.862v1.27h.862m.052 2.624c.313 0 .548-.065.704-.197.16-.13.24-.33.24-.594 0-.26-.08-.455-.236-.583-.156-.131-.392-.197-.708-.197h-.914v1.571h.914m1.449-2.158c.334.097.593.275.777.535.183.26.275.578.275.956 0 .579-.197 1.01-.59 1.294-.395.284-.994.426-1.797.426H355v-6h2.339c.839 0 1.446.126 1.82.378.378.252.567.655.567 1.21 0 .292-.069.54-.206.747a1.218 1.218 0 0 1-.6.454m.917-2.789h1.704l1.376 2.138 1.375-2.138H366l-2.302 3.472v2.528h-1.558v-2.528l-2.303-3.472m5.321 3.046h2.541v1.17h-2.54v-1.17m3.758-3.046h1.74l2.197 4.115v-4.115h1.477v6h-1.74l-2.197-4.115v4.115h-1.477v-6m8.502 1.17v3.66h.558c.637 0 1.122-.156 1.457-.47.337-.313.506-.768.506-1.366 0-.595-.168-1.047-.502-1.358-.335-.311-.822-.466-1.46-.466h-.56m-1.557-1.17h1.643c.917 0 1.6.066 2.047.197a2.7 2.7 0 0 1 1.157.66c.284.27.494.582.632.936.137.353.206.754.206 1.201 0 .453-.069.857-.206 1.214a2.574 2.574 0 0 1-.632.936c-.323.311-.712.532-1.165.663-.453.129-1.133.193-2.04.193h-1.642v-6" style="font-size:8.25858784px;font-style:normal;font-weight:700;fill:#fff;fill-opacity:1;stroke:none;stroke-width:1px;stroke-linecap:butt;stroke-linejoin:miter;stroke-opacity:1;font-family:'Bitstream Vera Sans'" transform="matrix(.9875 0 0 .93335 -323.9 -384.812)"/></svg>
